X: 2124
T: Atlantic Bridge
R: jig
M: 6/8
K: Edorian
|:BEE GEE|FDC DB,A,|GEE dEB|B3 B=cB|
BAF FGA|BGE BGE|FEC DBA|GED E3:|
|:B2A BGE|cBA BAG|F3 DFA|AGF EDB|
BAF cBc|edc dBA|G3 FdB|AFD E3:|

